_includes/icons/color-discount.svg

<svg fill="#666" height="50" viewBox="0 0 48 48" width="50" xmlns="http://www.w3.org/2000/svg"><path d="m24 2 4.506 5.029 6.494-2.029 1.465 6.535 6.535 1.465-2 6.494 5 4.506-5 4.506 2 6.494-6.535 1.465-1.465 6.535-6.494-2.029-4.506 5.029-4.506-5.029-6.494 2.029-1.465-6.535-6.535-1.465 2-6.494-5-4.506 5-4.506-2-6.494 6.535-1.465 1.465-6.535 6.494 2.029z" fill="#f44336"/><g fill="#fff"><path d="m20 32.301-1.699-1 9.699-15.602 1.699 1z"/><path d="m19 14c-1.801 0-4 1.102-4 4v1c0 1.801 1.102 4 4 4 2.102 0 4-1.398 4-4v-1c0-2.5-1.699-4-4-4zm1.801 5c0 1.301-.699 2-1.801 2-.898 0-1.801-.602-1.801-2v-1c0-1.398.902-2.102 1.801-2.102 1.398 0 1.801 1.301 1.801 2.102z"/><path d="m29 34c1.801 0 4-1.102 4-4v-1c0-1.801-1.102-4-4-4-2.102 0-4 1.398-4 4v1c0 2.5 1.699 4 4 4zm-1.801-5c0-1.301.699-2 1.801-2 .898 0 1.801.602 1.801 2v1c0 1.398-.902 2.102-1.801 2.102-1.398 0-1.801-1.301-1.801-2.102z"/></g></svg>

<svg xmlns="http://www.w3.org/2000/svg" viewBox="0 0 48 48" width="50" height="50" fill="#666"><path d="M24,2l4.506,5.029L35,5l1.465,6.535L43,13l-2,6.494L46,24l-5,4.506L43,35l-6.535,1.465L35,43	l-6.494-2.029L24,46l-4.506-5.029L13,43l-1.465-6.535L5,35l2-6.494L2,24l5-4.506L5,13l6.535-1.465L13,5l6.494,2.029L24,2z" fill="#f44336"/><g fill="#fff"><path d="M20,32.301l-1.699-1L28,15.699l1.699,1L20,32.301z"/><path d="M19,14c-1.801,0-4,1.102-4,4v1c0,1.801,1.102,4,4,4c2.102,0,4-1.398,4-4v-1C23,15.5,21.301,14,19,14 z M20.801,19c0,1.301-0.699,2-1.801,2c-0.898,0-1.801-0.602-1.801-2v-1c0-1.398,0.902-2.102,1.801-2.102 c1.398,0,1.801,1.301,1.801,2.102V19z"/><path d="M29,34c1.801,0,4-1.102,4-4v-1c0-1.801-1.102-4-4-4c-2.102,0-4,1.398-4,4v1C25,32.5,26.699,34,29,34 z M27.199,29c0-1.301,0.699-2,1.801-2c0.898,0,1.801,0.602,1.801,2v1c0,1.398-0.902,2.102-1.801,2.102 c-1.398,0-1.801-1.301-1.801-2.102V29z"/></g></svg>
